X: 100
T: THE BARLEY GRAIN
B: O'Neill's 100
M: 3/4
L: 1/4
Z: Transcribed by John Chambers <jc@trillian.mit.edu>
N: "Moderate"
N: "Collected by F.O'Neill"
K:G
(G/A/) \
| B2B | (d2e) | (B2A) | (G2A) \
| B2B | d2A | B3- | B2(G/A/) |
| B2B | (e2d) | (B2A) | (G2F) \
| EFE | B2A | G3- | G2 ||
|| G/F/ \
| E2E | EFG | (F2E) | (D2F) \
| E2E | EFE | B3 | (A2F) |
| E2E | EFG | F2E | (D2c) \
| (B2G) | (A2F) | G3- | G2 ||
